web/public/assets/update-your-plan.svg

<svg fill="none" height="70" viewBox="0 0 70 70" width="70" xmlns="http://www.w3.org/2000/svg" xmlns:xlink="http://www.w3.org/1999/xlink"><clipPath id="a"><path d="m0 0h7.78v7.42h-7.78z" transform="matrix(.99576531 -.09193177 .09193177 .99576531 16.048 27.3728)"/></clipPath><rect fill="#91d1ff" height="70" rx="35" width="70"/><rect fill="#fff" height="27" rx="2.5" transform="matrix(.99422533 .10731257 -.10731257 .99422533 2.570424 -4.435446)" width="17" x="42.4979" y="21.6658"/><rect height="27" rx="2.5" stroke="#5c9df2" transform="matrix(.99422533 .10731257 -.10731257 .99422533 2.570424 -4.435446)" width="17" x="42.4979" y="21.6658"/><g fill="#67a9ff"><rect height="1.05" rx=".525" transform="matrix(.99422533 .10731257 -.10731257 .99422533 4.371619 -4.496264)" width="10.5" x="43.9636" y="38.3715"/><rect height="1.05" rx=".525" transform="matrix(.99422533 .10731257 -.10731257 .99422533 4.654456 -4.531918)" width="9" x="44.4363" y="40.9817"/><rect height="1.05" rx=".525" transform="matrix(.99422533 .10731257 -.10731257 .99422533 4.937292 -4.56755)" width="7.5" x="44.9088" y="43.5919"/></g><path d="m54.3414 30.7499c-.0293.2959-.1184.5828-.2622.8435-.1438.2608-.3392.4901-.5746.6742l-3.3657 2.6815c-.0382.0318-.0826.0556-.1304.0701-.0478.0144-.0981.0192-.1478.014-.0513-.0049-.1011-.0202-.1464-.0447-.0452-.0245-.0851-.0578-.117-.0979l-2.716-3.3379c-.3776-.4689-.5548-1.0654-.4936-1.6613.0693-.5946.3693-1.1387.8367-1.5176.477-.3616 1.0766-.5272 1.6746-.4627.598.0646 1.1484.3544 1.5373.8093l.0944.1054.1052-.0838c.2316-.1865.4982-.3258.7845-.4101.5816-.1652 1.2059-.0978 1.7389.1877.2639.1447.4975.3378.6885.5691.1863.2346.3271.5015.4149.7869.0839.2836.1106.5807.0787.8743z" fill="#005bd3"/><rect fill="#fff" height="27" rx="2.5" transform="matrix(.99576531 -.09193177 .09193177 .99576531 -2.099846 1.091217)" width="17" x="10.7948" y="23.3386"/><rect height="27" rx="2.5" stroke="#5c9df2" transform="matrix(.99576531 -.09193177 .09193177 .99576531 -2.099846 1.091217)" width="17" x="10.7948" y="23.3386"/><rect fill="#67a9ff" height="1.05" rx=".525" transform="matrix(.99576531 -.09193177 .09193177 .99576531 -3.558321 1.595882)" width="10.5" x="15.5435" y="39.4221"/><rect fill="#67a9ff" height="1.05" rx=".525" transform="matrix(.99576531 -.09193177 .09193177 .99576531 -3.780753 1.696477)" width="9" x="16.5242" y="41.8868"/><rect fill="#67a9ff" height="1.05" rx=".525" transform="matrix(.99576531 -.09193177 .09193177 .99576531 -4.003193 1.797072)" width="7.5" x="17.5049" y="44.3516"/><g clip-path="url(#a)"><path d="m23.9697 29.8551-1.4498 1.7005.5843 2.1955c.0168.0722.0142.1474-.0075.2182s-.0617.1346-.1159.1849c-.0582.0468-.1289.0755-.2033.0823-.0744.0069-.1492-.0083-.215-.0437l-2.0834-.8119-1.8996 1.1796c-.0593.0446-.1298.0718-.2037.0787-.0738.0068-.1481-.0071-.2145-.04-.0559-.0442-.0982-.1032-.1221-.1702s-.0286-.1395-.0134-.209l.1671-2.2147-1.7312-1.4571c-.062-.0437-.1099-.1046-.1379-.1751-.0279-.0706-.0346-.1478-.0193-.2221.0155-.0725.0514-.1391.1035-.1919.052-.0528.118-.0897.1903-.1064l2.1613-.5209.8119-2.0834c.0314-.0653.0793-.1214.1388-.1627s.1287-.0666.2009-.0732c.0722-.0067.1449.0054.211.0352.0661.0297.1233.0761.1662.1345l1.1796 1.8996 2.2301.1155c.0738.0043.1449.0289.2056.0712.0606.0422.1083.1005.1379.1682.0297.0692.0387.1456.026.2198-.0128.0743-.0468.1432-.0979.1986z" fill="#005bd3"/></g><rect fill="#fff" height="27" rx="2.5" width="17" x="27" y="18.5"/><rect height="27" rx="2.5" stroke="#5c9df2" width="17" x="27" y="18.5"/><rect fill="#67a9ff" height="1.05" rx=".525" width="10.5" x="30.25" y="34.9519"/><rect fill="#67a9ff" height="1.05" rx=".525" width="9" x="31" y="37.4963"/><rect fill="#67a9ff" height="1.05" rx=".525" width="7.5" x="31.75" y="40.0408"/><path d="m39.485 25.6199v3c-.0034.1993-.0549.3948-.15.57-.1029.1727-.2473.317-.42.42l-2.6 1.44c-.1697.0996-.3632.1514-.56.15-.2031.0011-.4029-.0506-.58-.15l-2.58-1.48c-.1772-.0972-.3229-.2429-.42-.42-.1026-.1726-.1578-.3693-.16-.57v-3c.0022-.2008.0574-.3974.16-.57.0991-.1723.2402-.3168.41-.42l2.6-1.44c.1721-.0982.3669-.1499.565-.1499.1982 0 .3929.0517.565.1499l2.6 1.48c.1699.1032.3109.2477.41.42.1026.1726.1578.3692.16.57z" fill="#005bd3"/></svg>

<svg width="70" height="70" viewBox="0 0 70 70" fill="none" xmlns="http://www.w3.org/2000/svg">
<rect width="70" height="70" rx="35" fill="#91D1FF"/>
<rect x="42.4979" y="21.6658" width="17" height="27" rx="2.5" transform="rotate(6.16042 42.4979 21.6658)" fill="white"/>
<rect x="42.4979" y="21.6658" width="17" height="27" rx="2.5" transform="rotate(6.16042 42.4979 21.6658)" stroke="#5C9DF2"/>
<rect x="43.9636" y="38.3715" width="10.5" height="1.05" rx="0.525" transform="rotate(6.16042 43.9636 38.3715)" fill="#67A9FF"/>
<rect x="44.4363" y="40.9817" width="9" height="1.05" rx="0.525" transform="rotate(6.16042 44.4363 40.9817)" fill="#67A9FF"/>
<rect x="44.9088" y="43.5919" width="7.5" height="1.05" rx="0.525" transform="rotate(6.16042 44.9088 43.5919)" fill="#67A9FF"/>
<path d="M54.3414 30.7499C54.3121 31.0458 54.223 31.3327 54.0792 31.5934C53.9354 31.8542 53.74 32.0835 53.5046 32.2676L50.1389 34.9491C50.1007 34.9809 50.0563 35.0047 50.0085 35.0192C49.9607 35.0336 49.9104 35.0384 49.8607 35.0332C49.8094 35.0283 49.7596 35.013 49.7143 34.9885C49.6691 34.964 49.6292 34.9307 49.5973 34.8906L46.8813 31.5527C46.5037 31.0838 46.3265 30.4873 46.3877 29.8914C46.457 29.2968 46.757 28.7527 47.2244 28.3738C47.7014 28.0122 48.301 27.8466 48.899 27.9111C49.497 27.9757 50.0474 28.2655 50.4363 28.7204L50.5307 28.8258L50.6359 28.742C50.8675 28.5555 51.1341 28.4162 51.4204 28.3319C52.002 28.1667 52.6263 28.2341 53.1593 28.5196C53.4232 28.6643 53.6568 28.8574 53.8478 29.0887C54.0341 29.3233 54.1749 29.5902 54.2627 29.8756C54.3466 30.1592 54.3733 30.4563 54.3414 30.7499Z" fill="#005BD3"/>
<rect x="10.7948" y="23.3386" width="17" height="27" rx="2.5" transform="rotate(-5.27475 10.7948 23.3386)" fill="white"/>
<rect x="10.7948" y="23.3386" width="17" height="27" rx="2.5" transform="rotate(-5.27475 10.7948 23.3386)" stroke="#5C9DF2"/>
<rect x="15.5435" y="39.4221" width="10.5" height="1.05" rx="0.525" transform="rotate(-5.27475 15.5435 39.4221)" fill="#67A9FF"/>
<rect x="16.5242" y="41.8868" width="9" height="1.05" rx="0.525" transform="rotate(-5.27475 16.5242 41.8868)" fill="#67A9FF"/>
<rect x="17.5049" y="44.3516" width="7.5" height="1.05" rx="0.525" transform="rotate(-5.27475 17.5049 44.3516)" fill="#67A9FF"/>
<g clip-path="url(#clip0_28_31525)">
<path d="M23.9697 29.8551L22.5199 31.5556L23.1042 33.7511C23.121 33.8233 23.1184 33.8985 23.0967 33.9693C23.075 34.0401 23.035 34.1039 22.9808 34.1542C22.9226 34.201 22.8519 34.2297 22.7775 34.2365C22.7031 34.2434 22.6283 34.2282 22.5625 34.1928L20.4791 33.3809L18.5795 34.5605C18.5202 34.6051 18.4497 34.6323 18.3758 34.6392C18.302 34.646 18.2277 34.6321 18.1613 34.5992C18.1054 34.555 18.0631 34.496 18.0392 34.429C18.0153 34.362 18.0106 34.2895 18.0258 34.22L18.1929 32.0053L16.4617 30.5482C16.3997 30.5045 16.3518 30.4436 16.3238 30.3731C16.2959 30.3025 16.2892 30.2253 16.3045 30.151C16.32 30.0785 16.3559 30.0119 16.408 29.9591C16.46 29.9063 16.526 29.8694 16.5983 29.8527L18.7596 29.3318L19.5715 27.2484C19.6029 27.1831 19.6508 27.127 19.7103 27.0857C19.7698 27.0444 19.839 27.0191 19.9112 27.0125C19.9834 27.0058 20.0561 27.0179 20.1222 27.0477C20.1883 27.0774 20.2455 27.1238 20.2884 27.1822L21.468 29.0818L23.6981 29.1973C23.7719 29.2016 23.843 29.2262 23.9037 29.2685C23.9643 29.3107 24.012 29.369 24.0416 29.4367C24.0713 29.5059 24.0803 29.5823 24.0676 29.6565C24.0548 29.7308 24.0208 29.7997 23.9697 29.8551Z" fill="#005BD3"/>
</g>
<rect x="27" y="18.5" width="17" height="27" rx="2.5" fill="white"/>
<rect x="27" y="18.5" width="17" height="27" rx="2.5" stroke="#5C9DF2"/>
<rect x="30.25" y="34.9519" width="10.5" height="1.05" rx="0.525" fill="#67A9FF"/>
<rect x="31" y="37.4963" width="9" height="1.05" rx="0.525" fill="#67A9FF"/>
<rect x="31.75" y="40.0408" width="7.5" height="1.05" rx="0.525" fill="#67A9FF"/>
<path d="M39.485 25.6199V28.6199C39.4816 28.8192 39.4301 29.0147 39.335 29.1899C39.2321 29.3626 39.0877 29.5069 38.915 29.6099L36.315 31.0499C36.1453 31.1495 35.9518 31.2013 35.755 31.1999C35.5519 31.201 35.3521 31.1493 35.175 31.0499L32.595 29.5699C32.4178 29.4727 32.2721 29.327 32.175 29.1499C32.0724 28.9773 32.0172 28.7806 32.015 28.5799V25.5799C32.0172 25.3791 32.0724 25.1825 32.175 25.0099C32.2741 24.8376 32.4152 24.6931 32.585 24.5899L35.185 23.1499C35.3571 23.0517 35.5519 23 35.75 23C35.9482 23 36.1429 23.0517 36.315 23.1499L38.915 24.6299C39.0849 24.7331 39.2259 24.8776 39.325 25.0499C39.4276 25.2225 39.4828 25.4191 39.485 25.6199Z" fill="#005BD3"/>
<defs>
<clipPath id="clip0_28_31525">
<rect width="7.78" height="7.42" fill="white" transform="translate(16.048 27.3728) rotate(-5.27475)"/>
</clipPath>
</defs>
</svg>
